X: 26146
T: McIllhatton's Retreat
R: reel
M: 4/4
K: Dmajor
(3ABc|:df~f2 gece|dAAA AGFA|df~f2 ba^ga|=gfed (3cBA Bc|
df~f2 gece|dAAA AGFA|GE~E2 EFGB|1 BABc dABc:|2 BABc dBAF||
|:D2FA dAFA|GE~E2 EFGE|D2FA dAFA|GECE DB,CE|
D2FA dAFA|GE~E2 EFGE|FDFA ~B3d|(3cBA Bc dABc:|

